!!!!SEGMENT: pl-wtm--r-1539--006_stefani-jozef--msza-no-1-sanctus.krn
!!!cenid: 18xx:1766
!!!COM: Stefani, Józef
!!!COM-rismID: pe30024097
!!!CDT: 1800/04/16-1876/03/19
!!!CNT: Polish
!!!OPR: Msza No 1
!!!OTL: Sanctus
!!!OMV: 006
!!!PDT:
!!!AGN: Sacred; Mass
!!!SMS-siglum: PL-Wtm
!!!SMS-shelfmark: R 1539
!!!SMS-shelfwork: 001-006 M
!!!SMS-variant:
!!!SMS-altvar:
!!!NIFC-rismSourceID: 1001120484
!!!NIFC-islandoraID: pl-wtm:26320
!!!URL-pdf-islandora: https://repozytorium.nifc.pl/islandora/object/pl-wtm%3A26320/datastream/PDF/view
!!!URL-scan: https://polish.musicsources.pl/pl/lokalizacje/galeria/rekopisy/6340 @EN{Scan on Polish Music Sources Website} @PL{Skany w portalu Dziedzictwo Muzyki Polskiej w otwartym dostępie}
!!!ONB-nifc: UWAGA: części Mszy: 1. Kyrie, 2. Gloria, 3. Graduale, 4. Credo, 5. Offertorium, 6. Sanctus, 7. Benedictus, 8. Agnus Dei. Uwaga: niektóre części razem z „przygrywkami”
!!!AIN: 1 alto 1 empty 1 organ 1 soprn
!!!key:
**kern	**kern	**kern	**text	**text	**text	**text	**dynam	**kern	**kern	**text	**dynam
*part4	*part4	*part3	*part3	*part3	*part3	*part3	*part3	*part2	*part1	*part1	*part1
*staff5	*staff4	*staff3	*staff3	*staff3	*staff3	*staff3	*	*staff2	*staff1	*staff1	*
*Iorgan	*Iempty	*Iempty	*	*	*	*	*	*Ialto	*Isoprn	*	*
*I"Organo	*	*I"Baſso	*	*	*	*	*	*I"Alto	*I"Soprano	*	*
*I'Org.	*	*I'B.	*	*	*	*	*	*I'A.	*I'S	*	*
*clefF4	*clefG2	*clefF4	*	*	*	*	*	*clefG2	*clefG2	*	*
*k[]	*k[]	*k[]	*	*	*	*	*	*k[]	*k[]	*	*
*C:	*C:	*C:	*	*	*	*	*	*C:	*C:	*	*
*M4/4	*M4/4	*M4/4	*	*	*	*	*	*M4/4	*M4/4	*	*
*met(c)	*met(c)	*met(c)	*	*	*	*	*	*met(c)	*met(c)	*	*
=1	=1	=1	=1	=1	=1	=1	=1	=1	=1	=1	=1
*all\right	*all\right	*all\right	*	*	*	*	*	*all\right	*all\right	*	*
*>A	*>A	*>A	*	*	*	*	*	*>A	*>A	*	*
!	!	!	!	!	!	!	!	!	!LO:TX:a:Bi:t=Adagio.	!	!
1r	2r	1r	.	.	.	.	.	1r	1r	.	.
.	4r	.	.	.	.	.	.	.	.	.	.
.	8.r	.	.	.	.	.	.	.	.	.	.
.	[16g/	.	.	.	.	.	.	.	.	.	.
=2!|:	=2!|:	=2!|:	=2!|:	=2!|:	=2!|:	=2!|:	=2!|:	=2!|:	=2!|:	=2!|:	=2!|:
*>B	*>B	*>B	*	*	*	*	*	*>B	*>B	*	*
1r	4.gg 4.g\]	1r	.	.	.	.	.	1r	1r	.	.
.	16r	.	.	.	.	.	.	.	.	.	.
.	[16g/	.	.	.	.	.	.	.	.	.	.
.	4.gg 4.g\]	.	.	.	.	.	.	.	.	.	.
.	16r	.	.	.	.	.	.	.	.	.	.
.	[16g/	.	.	.	.	.	.	.	.	.	.
=3	=3	=3	=3	=3	=3	=3	=3	=3	=3	=3	=3
*	*2\right	*	*	*	*	*	*	*	*	*	*
2r	2.gg 2.g\]	2r	.	.	.	.	.	2r	2r	.	.
4r	.	4r	.	.	.	.	f	4r	4r	.	.
[4c [4G [>4C 4CC\	4cc 4e/	4C/	1.) U-	2.) Za-	3.) Po-	4.) Pan	.	4e/	4cc\	U-	f
=4	=4	=4	=4	=4	=4	=4	=4	=4	=4	=4	=4
*^	*^	*	*	*	*	*	*	*	*	*	*
*	*^	*	*	*	*	*	*	*	*	*	*	*	*
2c] 2G] 2C] 2CC\	2ryy	2rCCyy	4.cc/	2e\	4.C/	-pa-	-brzmij-	-wta-	wie-	.	4.e/	4.cc\	-pa-	.
.	.	.	8g/	.	8C/	-dnij	-cie	-rzaj	-czny	.	8e/	8g/	-dnij	.
2A/	4F 4FF\	4ryy	4a/	2f\	4F\	na	zna-	ludz-	za-	.	4f/	4a/	na	.
.	.	.	8qqee/	.	.	.	.	.	.	.	.	(8qqee/	.	.
.	4D 4DD\	4d 4A/	4dd/	.	4D\	ko-	-mi	-ki	-wsze	.	4f/	4dd\)	ko-	.
*	*v	*v	*	*	*	*	*	*	*	*	*	*	*	*
!!LO:LB:g=original
=5	=5	=5	=5	=5	=5	=5	=5	=5	=5	=5	=5	=5	=5
*	*	*	*	*2\right	*	*	*	*	*	*	*2\right	*	*
2c/	1G 1GG	2cc 2e/	1g	2G\	-la-	Nie-	ro-	wszę-	.	2e/	2cc\	-la-	.
2B/	.	2b 2d/	.	2GG/	-na	-ba	-dzie	-dzie	.	2d/	2b\	-na	.
=6	=6	=6	=6	=6	=6	=6	=6	=6	=6	=6	=6	=6	=6
2.A/	2.AA\	2cc/	1c	4.AA/	Lu-	Bóg	Bo-	ku	.	4.c/	4.cc\	Lu-	<
.	.	.	.	8AA/	-du	nasz	-giem	nam	.	8c/	8cc\	-du	.
.	.	4e/	.	4A\	czcią	nie-	prze-	łas-	.	4c/	4e/	czcią	.
.	.	.	.	.	.	.	.	.	.	.	.	.	[ >
4A-X/	4AA-X\	4f#X/	.	4A-X\	prze-	-po-	-ni-	-ką	.	4c/	4f#X/	prze-	.
*v	*v	*	*	*	*	*	*	*	*	*	*	*	*
*	*v	*v	*	*	*	*	*	*	*	*	*	*
=7	=7	=7	=7	=7	=7	=7	=7	=7	=7	=7	=7
[2G [>2GG\	[2g [>2B/	2G\	-ię-	-ię-	-knię-	zdię-	.	2B/	2g/	-ię-	]
4G] 4GG;\]	4g] 4B;/]	4G;\	-ty	-ty	-ty	-ty	.	4B;/	4g;/	-ty	.
4r	8.gL 8.B/	4r	.	.	.	.	.	8.B/L	8.g/L	U-	p
.	16aJk 16c/	.	.	.	.	.	.	16c/Jk	16a/Jk	.	.
=8	=8	=8	=8	=8	=8	=8	=8	=8	=8	=8	=8
8.r	2b 2d/	8.r	.	.	.	.	.	2d/	2b/	-wiel-	.
16GG/	.	16G\	U-	wpo-	Na	Niech	.	.	.	.	.
!LO:TX:a:t=P:problem=mixed beam	!	!	!	!	!	!	!	!	!	!	!
8.G\L	.	4G\	-wiel-	-sta-	wscho-	wiecz-	.	.	.	.	.
16GG/Jk	.	.	.	.	.	.	.	.	.	.	.
4G\	4g 4B/	4GG/	-biaj	-ci	-dzie	-nie	.	4B/	4g/	-biaj	.
.	.	.	.	.	.	.	.	.	.	.	<
4r	8.bL 8.d/	8.G\	twe-	przy-	i	wiel-	.	8.d/	8.b\	Twe-	.
.	16ccJk 16e/	16G\	-go	-szedł	za-	-bion	.	16e/	16cc\	-go	[[
=9	=9	=9	=9	=9	=9	=9	=9	=9	=9	=9	=9
*^	*	*	*	*	*	*	*	*	*	*	*
8.r	2rFF	2dd 2f/	2G\	Pa-	chle-	-cho-	bę-	.	2f/	2dd\	Pa-	>
16GG/	.	.	.	.	.	.	.	.	.	.	.	.
!LO:TX:a:t=P:problem=mixed beam	!	!	!	!	!	!	!	!	!	!	!	!
8.G\L	.	.	.	.	.	.	.	.	.	.	.	.
16GG/Jk	.	.	.	.	.	.	.	.	.	.	.	.
8G\L	8r	8bL 8d/	4G 4GG/	-na	-ba	-dzie	-dzie	.	4d/	4b\	-na	]
8G\	8GG\L	8g 8B/	.	.	.	.	.	.	.	.	.	.
8F#X\	8FF#X\	8a 8c/	4r	.	.	.	.	.	4r	4r	.	.
8Fn\J	8FFn\J	8bJ 8d/	.	.	.	.	.	.	.	.	.	.
*v	*v	*	*	*	*	*	*	*	*	*	*	*
!!LO:LB:g=original
=10	=10	=10	=10	=10	=10	=10	=10	=10	=10	=10	=10
1E 1EE	2cc/	2E\	Swię-	.	.	.	f	2g/	(4.cc\	Swię-	f
.	.	.	.	.	.	.	.	.	8g/)	.	.
.	2gg 2cc/	2E\	-ty!	.	.	.	.	2g/	2g/	-ty!	.
*clefG2	*	*	*	*	*	*	*	*	*	*	*
=11	=11	=11	=11	=11	=11	=11	=11	=11	=11	=11	=11
*	*^	*	*	*	*	*	*	*	*	*	*
1g 1e;	2ccc/	1cc	1r;	.	.	.	.	.	1r;	1r;	.	.
.	2gg;/	.	.	.	.	.	.	.	.	.	.	.
*clefF4	*	*	*	*	*	*	*	*	*	*	*	*
=12	=12	=12	=12	=12	=12	=12	=12	=12	=12	=12	=12	=12
1d 1A 1F 1FF	2dd/	1f	2F\	Swię-	.	.	.	.	(4.a/	(4.dd\	Swię-	.
.	.	.	.	.	.	.	.	.	8f/)	8a/)	.	.
.	2a/	.	2F\	-ty!	.	.	.	.	2f/	2a/	-ty!	.
*clefG2	*	*	*	*	*	*	*	*	*	*	*	*
=13	=13	=13	=13	=13	=13	=13	=13	=13	=13	=13	=13	=13
1dd 1a 1f;	2ddd/	1ff	1r;	.	.	.	.	.	1r;	1r;	.	.
.	2aa;/	.	.	.	.	.	.	.	.	.	.	.
=14	=14	=14	=14	=14	=14	=14	=14	=14	=14	=14	=14	=14
*^	*	*	*	*	*	*	*	*	*	*	*	*
1ee 1e	2..b/	2..b 2..f 2..d/	1g	(2..G\	Swię-	.	.	.	.	(2..d/	(2..b\	Swię-	.
.	8a/	8cc 8e/	.	8C/)	.	.	.	.	.	8e/)	8cc\)	.	.
*v	*v	*	*	*	*	*	*	*	*	*	*	*	*
*	*v	*v	*	*	*	*	*	*	*	*	*	*
=15	=15	=15	=15	=15	=15	=15	=15	=15	=15	=15	=15
1ee 1a 1A	1cc 1g 1e	1C	-ty!	.	.	.	.	1e	1cc	-ty!	.
*clefG2	*	*	*	*	*	*	*	*	*	*	*
=16	=16	=16	=16	=16	=16	=16	=16	=16	=16	=16	=16
*^	*	*	*	*	*	*	*	*	*	*	*
*	*^	*	*	*	*	*	*	*	*	*	*	*
1g	2..d/	2..G\	2..bb 2..ff 2..dd\	1r	.	.	.	.	.	1r	1r	.	.
.	8c\	8c/	8ccc 8ee 8cc\	.	.	.	.	.	.	.	.	.	.
*v	*v	*v	*	*	*	*	*	*	*	*	*	*	*
=17	=17	=17	=17	=17	=17	=17	=17	=17	=17	=17	=17
!LO:TX:a:t=1. 2. 3.	!	!	!	!	!	!	!	!	!	!	!
*>B1	*>B1	*>B1	*	*	*	*	*	*>B1	*>B1	*	*
2g 2c/	2ccc 2ee 2cc\	1r	.	.	.	.	.	1r	1r	.	.
2a 2A/	2ccc 2ff#X 2cc\	.	.	.	.	.	.	.	.	.	.
=18	=18	=18	=18	=18	=18	=18	=18	=18	=18	=18	=18
2.g 2.G/	2.bb 2.gg 2.dd\	1r	.	.	.	.	.	1r	1r	.	.
4r	8.r	.	.	.	.	.	.	.	.	.	.
.	16g/	.	.	.	.	.	.	.	.	.	.
=19:|!	=19:|!	=19:|!	=19:|!	=19:|!	=19:|!	=19:|!	=19:|!	=19:|!	=19:|!	=19:|!	=19:|!
!LO:TX:a:t=4.	!	!	!	!	!	!	!	!	!	!	!
*>B2	*>B2	*>B2	*	*	*	*	*	*>B2	*>B2	*	*
1g 1c	1ccc 1ee 1cc	1r	.	.	.	.	.	1r	1r	.	.
==	==	==	==	==	==	==	==	==	==	==	==
*-	*-	*-	*-	*-	*-	*-	*-	*-	*-	*-	*-
!!!system-decoration: {s1,s2,s3}{s4,s5}
!!!RDF**kern: > = above
!!!ENC: Marta Lawrence
!!!END: 2021-04-22
!!!ENC: Berenika Jozajtis
!!!END: 2021-04-06
!!!YEC: Copyright 2022 Narodowy Instytut Fryderyka Chopina (https://polishscores.org)
!!!YEM: Licence CC BY 4.0 (https://creativecommons.org/licenses/by/4.0)
